X:329
T:Hit and Miss
T:Daphne
S:Colin Hume's website,  colinhume.com  - chords can also be printed below the stave.
Q:3/8=112
M:6/8
L:1/8
K:G
P:A
|:E | "Em"G2A B2e | "Bm"d3/e/f "Em"e2B/c/ | "G"dBG "D"AFD | "Em"EGF E2 :|
P:B
|: z | "Em"g2g "D"f2f | "C"e3/f/e "Bm"dB2 | "Em"d3/c/B "Am"A2G | "D"GF2 "G"G2 :|
P:C
|| z | "G"dde dBG | "D"de/f/g afd | "Em"B3/A/G "Bm"F2E | "C"eed "Em"eBB | "G"d3/c/B "Am"AEG | "D"F3/G/F "Em"E2 |]

